Production/EA4S_WordDrawings/SVG/singles_SVG/voice.svg

<?xml version="1.0" encoding="UTF-8" standalone="no"?><!DOCTYPE svg PUBLIC "-//W3C//DTD SVG 1.1//EN" "http://www.w3.org/Graphics/SVG/1.1/DTD/svg11.dtd"><svg width="100%" height="100%" viewBox="0 0 536 511" version="1.1" xmlns="http://www.w3.org/2000/svg" xmlns:xlink="http://www.w3.org/1999/xlink" xml:space="preserve" style="fill-rule:evenodd;clip-rule:evenodd;stroke-linejoin:round;stroke-miterlimit:1.41421;"><g id="voice"><path d="M279.607,207.49c-4.099,4.96 -4.192,13.433 -5.554,19.549c-1.465,6.585 -4.054,12.848 -7.64,18.55c-5.367,8.533 -14.882,13.664 -22.679,19.657c-8.801,6.764 -18.853,15.654 -17.469,27.826c1.291,11.356 10.338,20.815 18.98,27.444c4.117,3.158 9.904,1.975 13.97,-0.736c2.626,-1.751 7.754,-7.918 3.401,-10.857c-7.832,-5.289 -17.033,-14.135 -16.76,-24.318c0.105,-3.884 3.693,-6.896 6.269,-9.326c3.471,-3.273 7.39,-6.047 11.122,-9.007c8.512,-6.751 16.222,-14.474 20.038,-24.868c2.109,-5.744 2.971,-11.635 3.089,-17.732c0.094,-4.794 0.023,-13.694 -4.147,-16.816c-0.867,-0.65 -2.013,-0.101 -2.62,0.634Z" style="fill:#010101;fill-rule:nonzero;"/><path d="M257.113,317.798c-2.547,6.814 1.329,20.843 -6.226,25.049c-1.596,0.888 -4.162,3.604 -3.736,5.698c1.401,6.896 5.295,12.192 8.065,18.523c1.241,2.836 5.208,3.107 7.784,2.426c16.651,-4.402 39.273,-0.07 42.576,19.727c0.587,3.518 0.218,6.886 -1.805,9.845c-1.604,2.348 -4.322,3.312 -7.528,4.516c-6.53,2.453 -15.696,2.915 -23.267,2.928c-4.672,0.009 -9.619,3.414 -10.264,8.139c-1.297,9.521 -3.046,21.854 9.125,24.314c4.123,0.833 9.175,-1.502 11.448,-4.969c2.177,-3.319 0.585,-6.795 -3.261,-7.516c-3.75,-0.702 -1.172,-13.197 -0.875,-15.686c-3.421,2.713 -6.842,5.426 -10.264,8.139c19.574,-0.112 53.771,-5.248 53.163,-31.295c-0.688,-29.475 -36.607,-35.715 -59.187,-29.69c2.595,0.809 5.189,1.617 7.784,2.426c-2.55,-5.772 -6.762,-10.663 -8.233,-16.898c0.018,0.975 0.036,1.948 0.054,2.923c1.836,-5.305 3.995,-9.16 3.658,-15.021c-0.293,-5.093 -1.896,-11.101 -5.59,-14.727c-0.996,-0.982 -3.005,0.037 -3.421,1.149Z" style="fill:#010101;fill-rule:nonzero;"/><path d="M275.405,435.785c-2.252,6.236 -1.59,13.089 -3.092,19.53c-1.032,4.428 -3.422,8.254 -4.41,12.73c-1.618,7.333 0.747,14.053 5.172,19.867c9.159,12.037 27.146,17.286 41.232,20.222c21.518,4.483 44.598,2.616 66.056,-1.119c26.577,-4.627 52.171,-14.413 76.912,-24.896c2.862,-1.213 6.254,-3.964 6.21,-7.405c-0.057,-4.479 -5.45,-4.684 -8.626,-4.149c-1.771,0.299 -3.369,0.843 -5.015,1.557c-2.697,1.17 -5.906,3.726 -5.864,6.993c0.04,3.121 3.427,4.376 6.067,4.209c0.918,-0.068 1.837,-0.115 2.757,-0.141c-0.071,-3.954 -0.144,-7.908 -0.215,-11.862c-22.346,9.469 -45.057,17.933 -68.908,22.73c-19.973,4.018 -41.111,5.436 -60.278,1.926c-12.957,-2.373 -27.58,-7.015 -36.399,-17.358c-3.631,-4.26 -4.339,-9.844 -2.856,-15.096c0.499,-1.77 1.346,-3.407 2.012,-5.113c0.844,-2.166 -0.525,-5.715 -1.135,-7.87c-1.59,-5.628 -1.764,-11.903 -6.745,-15.718c-0.91,-0.698 -2.5,-0.075 -2.875,0.963Z" style="fill:#010101;fill-rule:nonzero;"/><path d="M284.823,210.466c1.502,-5.414 1.044,-9.555 -1.829,-14.358c-3.457,-5.779 -5.669,-12.104 -7.978,-18.43c-4.762,-13.048 -7.453,-26.516 -7.739,-40.41c-0.465,-22.589 6.634,-42.758 20.638,-60.398c12.256,-15.438 30.228,-27.92 46.666,-36.542c9.023,-4.732 18.424,-8.748 27.998,-12.223c4.236,-1.538 6.208,-2.156 11.249,-3.621c5.297,-1.539 10.64,-2.762 16.058,-3.795c43.461,-8.286 88.055,-3.076 126.225,20.081c0.649,-4.434 1.299,-8.867 1.947,-13.3c2.029,-0.688 2.039,-0.802 0.029,-0.346c-1.418,0.248 -2.817,0.645 -4.242,0.891c-6.768,1.169 -16.034,12.93 -4.913,15.028c7.538,1.423 14.444,-0.153 20.876,-4.321c4.838,-3.134 7.977,-9.728 1.947,-13.3c-48.348,-28.638 -109.354,-31.37 -162.335,-14.649c-40.527,12.789 -81.78,35.791 -105.42,72.222c-12.079,18.616 -17.162,40.175 -15.954,62.241c0.724,13.207 4.006,26.253 8.541,38.634c2.188,5.977 4.562,12.415 8.191,17.678c2.843,4.122 6.369,6.952 8.307,11.711c1.957,4.809 10.707,0.924 11.738,-2.793Z" style="fill:#010101;fill-rule:nonzero;"/><path d="M300.12,209.232c-3.297,6.583 -4.164,13.922 -3.993,21.211c0.766,-1.566 1.531,-3.132 2.297,-4.698c-1.99,2.131 -4.356,4.959 -2.994,8.099c1.964,4.524 8.646,3.661 12.21,2.115c3.302,-1.433 7.227,-4.558 7.176,-8.558c-0.057,-4.471 -4.951,-5.19 -8.377,-5.135c1.667,0.511 3.334,1.021 5.001,1.531c-3.507,-4.334 -2.496,-10.762 -5.411,-15.422c-1.242,-1.983 -4.961,-1.037 -5.909,0.857Z" style="fill:#010101;fill-rule:nonzero;"/><path d="M1.043,399.9c6.024,0.149 12.001,1.21 17.96,2.025c4.902,0.671 11.235,2.427 16.175,1.266c12.067,-2.835 17.16,-17.92 24.814,-26.135c-2.682,0.132 -5.363,0.264 -8.045,0.396c4.34,10.543 2.956,22.063 2.592,33.17c-0.371,11.283 0.874,22.467 7.473,31.949c2.706,3.889 8.914,1.141 10.495,-2.496c6.857,-15.77 10.399,-32.8 15.787,-49.087c5.159,-15.598 12.075,-32.685 26.27,-42.163c-2.811,-0.487 -5.621,-0.974 -8.432,-1.461c2.31,48.081 -6.808,96.589 6.701,143.712c1.296,4.522 10.245,0.813 10.9,-2.592c5.457,-28.349 8.282,-57.129 13.669,-85.492c5.247,-27.635 12.637,-56.344 29.435,-79.414c-3.543,0.157 -7.086,0.315 -10.63,0.472c1.338,25.52 -0.305,51.094 1.603,76.6c1.872,25.029 7.329,50.917 23.918,70.551c3,3.551 10.187,-0.757 10.507,-4.56c1.398,-16.604 1.792,-33.272 3.538,-49.853c1.688,-16.031 4.286,-33.495 13.024,-47.39c-3.536,0.157 -7.072,0.314 -10.607,0.472c0.189,11.282 4.015,21.808 5.762,32.853c1.863,11.778 0.503,23.465 5.157,34.753c1.953,4.735 9.64,0.549 10.921,-2.598c2.285,-5.615 3.416,-11.528 4.761,-17.417c1.224,-5.362 3.585,-10.035 5.266,-15.207c0.825,-2.536 1.388,-2.03 -0.875,-0.398c-1.162,0.839 1.1,-0.45 1.081,-0.441c1.321,-0.599 2.527,-1.171 3.934,-1.58c5.98,-1.738 12.275,-1.765 18.239,-3.693c2.576,-0.833 5.437,-5.809 0.843,-5.179c-6.933,0.949 -13.902,0.073 -20.768,1.807c-3.83,0.968 -9.149,2.957 -11.517,6.336c-0.889,1.268 -1.212,3.068 -1.722,4.499c-1.173,3.292 -2.981,6.3 -4.109,9.634c-2.461,7.274 -3.182,14.961 -6.094,22.113c3.641,-0.866 7.281,-1.731 10.921,-2.598c-4.316,-10.47 -3.353,-21.66 -4.718,-32.685c-1.379,-11.122 -5.57,-21.531 -5.76,-32.854c-0.092,-5.503 -8.927,-2.199 -10.607,0.472c-9.133,14.522 -12.105,32.04 -14.125,48.798c-2.115,17.541 -2.394,35.224 -3.877,52.815c3.502,-1.521 7.005,-3.04 10.507,-4.56c-15.969,-18.903 -20.579,-44.235 -22.37,-68.217c-1.867,-25.01 -0.176,-50.107 -1.484,-75.133c-0.295,-5.641 -8.788,-2.058 -10.63,0.472c-17.007,23.354 -24.737,52.149 -30.229,80.101c-5.665,28.831 -8.393,58.141 -13.901,86.993c3.634,-0.864 7.267,-1.728 10.9,-2.592c-13.346,-46.267 -4.153,-94.36 -6.467,-141.601c-0.206,-4.199 -6.233,-2.931 -8.432,-1.461c-31.694,21.197 -33.372,64.96 -46.822,97.227c3.304,-1.109 6.608,-2.218 9.913,-3.327c-13.607,-18.826 -1.724,-43.411 -10.748,-63.737c-1.334,-3.002 -6.424,-1.415 -8.045,0.396c-3.439,3.841 -6.229,8.138 -9.084,12.414c-1.53,2.293 -3.12,4.541 -4.793,6.731c-0.994,1.302 -3.966,4.823 -4.935,5.142c-10.079,3.309 -22.136,-0.41 -32.517,-0.443c-1.413,-0.006 -2.728,2.146 -0.723,2.195Z" style="fill:#010101;fill-rule:nonzero;"/></g></svg>

<?xml version="1.0" encoding="UTF-8"?>
<svg width="536px" height="511px" viewBox="0 0 536 511" version="1.1" xmlns="http://www.w3.org/2000/svg" xmlns:xlink="http://www.w3.org/1999/xlink">
    <!-- Generator: Sketch 41 (35326) - http://www.bohemiancoding.com/sketch -->
    <title>voice</title>
    <desc>Created with Sketch.</desc>
    <defs></defs>
    <g id="Page-1" stroke="none" stroke-width="1" fill="none" fill-rule="evenodd">
        <g id="Layer_1" transform="translate(-3284.000000, -1460.000000)" fill="#010101">
            <g id="Layer_1_3_">
                <g id="voice" transform="translate(3284.000000, 1460.000000)">
                    <path d="M279.607,207.49 C275.508,212.45 275.415,220.923 274.053,227.039 C272.588,233.624 269.999,239.887 266.413,245.589 C261.046,254.122 251.531,259.253 243.734,265.246 C234.933,272.01 224.881,280.9 226.265,293.072 C227.556,304.428 236.603,313.887 245.245,320.516 C249.362,323.674 255.149,322.491 259.215,319.78 C261.841,318.029 266.969,311.862 262.616,308.923 C254.784,303.634 245.583,294.788 245.856,284.605 C245.961,280.721 249.549,277.709 252.125,275.279 C255.596,272.006 259.515,269.232 263.247,266.272 C271.759,259.521 279.469,251.798 283.285,241.404 C285.394,235.66 286.256,229.769 286.374,223.672 C286.468,218.878 286.397,209.978 282.227,206.856 C281.36,206.206 280.214,206.755 279.607,207.49 L279.607,207.49 Z" id="Shape"></path>
                    <path d="M257.113,317.798 C254.566,324.612 258.442,338.641 250.887,342.847 C249.291,343.735 246.725,346.451 247.151,348.545 C248.552,355.441 252.446,360.737 255.216,367.068 C256.457,369.904 260.424,370.175 263,369.494 C279.651,365.092 302.273,369.424 305.576,389.221 C306.163,392.739 305.794,396.107 303.771,399.066 C302.167,401.414 299.449,402.378 296.243,403.582 C289.713,406.035 280.547,406.497 272.976,406.51 C268.304,406.519 263.357,409.924 262.712,414.649 C261.415,424.17 259.666,436.503 271.837,438.963 C275.96,439.796 281.012,437.461 283.285,433.994 C285.462,430.675 283.87,427.199 280.024,426.478 C276.274,425.776 278.852,413.281 279.149,410.792 C275.728,413.505 272.307,416.218 268.885,418.931 C288.459,418.819 322.656,413.683 322.048,387.636 C321.36,358.161 285.441,351.921 262.861,357.946 C265.456,358.755 268.05,359.563 270.645,360.372 C268.095,354.6 263.883,349.709 262.412,343.474 C262.43,344.449 262.448,345.422 262.466,346.397 C264.302,341.092 266.461,337.237 266.124,331.376 C265.831,326.283 264.228,320.275 260.534,316.649 C259.538,315.667 257.529,316.686 257.113,317.798 L257.113,317.798 Z" id="Shape"></path>
                    <path d="M275.405,435.785 C273.153,442.021 273.815,448.874 272.313,455.315 C271.281,459.743 268.891,463.569 267.903,468.045 C266.285,475.378 268.65,482.098 273.075,487.912 C282.234,499.949 300.221,505.198 314.307,508.134 C335.825,512.617 358.905,510.75 380.363,507.015 C406.94,502.388 432.534,492.602 457.275,482.119 C460.137,480.906 463.529,478.155 463.485,474.714 C463.428,470.235 458.035,470.03 454.859,470.565 C453.088,470.864 451.49,471.408 449.844,472.122 C447.147,473.292 443.938,475.848 443.98,479.115 C444.02,482.236 447.407,483.491 450.047,483.324 C450.965,483.256 451.884,483.209 452.804,483.183 C452.733,479.229 452.66,475.275 452.589,471.321 C430.243,480.79 407.532,489.254 383.681,494.051 C363.708,498.069 342.57,499.487 323.403,495.977 C310.446,493.604 295.823,488.962 287.004,478.619 C283.373,474.359 282.665,468.775 284.148,463.523 C284.647,461.753 285.494,460.116 286.16,458.41 C287.004,456.244 285.635,452.695 285.025,450.54 C283.435,444.912 283.261,438.637 278.28,434.822 C277.37,434.124 275.78,434.747 275.405,435.785 L275.405,435.785 Z" id="Shape"></path>
                    <path d="M284.823,210.466 C286.325,205.052 285.867,200.911 282.994,196.108 C279.537,190.329 277.325,184.004 275.016,177.678 C270.254,164.63 267.563,151.162 267.277,137.268 C266.812,114.679 273.911,94.51 287.915,76.87 C300.171,61.432 318.143,48.95 334.581,40.328 C343.604,35.596 353.005,31.58 362.579,28.105 C366.815,26.567 368.787,25.949 373.828,24.484 C379.125,22.945 384.468,21.722 389.886,20.689 C433.347,12.403 477.941,17.613 516.111,40.77 C516.76,36.336 517.41,31.903 518.058,27.47 C520.087,26.782 520.097,26.668 518.087,27.124 C516.669,27.372 515.27,27.769 513.845,28.015 C507.077,29.184 497.811,40.945 508.932,43.043 C516.47,44.466 523.376,42.89 529.808,38.722 C534.646,35.588 537.785,28.994 531.755,25.422 C483.407,-3.216 422.401,-5.948 369.42,10.773 C328.893,23.562 287.64,46.564 264,82.995 C251.921,101.611 246.838,123.17 248.046,145.236 C248.77,158.443 252.052,171.489 256.587,183.87 C258.775,189.847 261.149,196.285 264.778,201.548 C267.621,205.67 271.147,208.5 273.085,213.259 C275.042,218.068 283.792,214.183 284.823,210.466 L284.823,210.466 Z" id="Shape"></path>
                    <path d="M300.12,209.232 C296.823,215.815 295.956,223.154 296.127,230.443 C296.893,228.877 297.658,227.311 298.424,225.745 C296.434,227.876 294.068,230.704 295.43,233.844 C297.394,238.368 304.076,237.505 307.64,235.959 C310.942,234.526 314.867,231.401 314.816,227.401 C314.759,222.93 309.865,222.211 306.439,222.266 C308.106,222.777 309.773,223.287 311.44,223.797 C307.933,219.463 308.944,213.035 306.029,208.375 C304.787,206.392 301.068,207.338 300.12,209.232 L300.12,209.232 Z" id="Shape"></path>
                    <path d="M1.043,399.9 C7.067,400.049 13.044,401.11 19.003,401.925 C23.905,402.596 30.238,404.352 35.178,403.191 C47.245,400.356 52.338,385.271 59.992,377.056 C57.31,377.188 54.629,377.32 51.947,377.452 C56.287,387.995 54.903,399.515 54.539,410.622 C54.168,421.905 55.413,433.089 62.012,442.571 C64.718,446.46 70.926,443.712 72.507,440.075 C79.364,424.305 82.906,407.275 88.294,390.988 C93.453,375.39 100.369,358.303 114.564,348.825 C111.753,348.338 108.943,347.851 106.132,347.364 C108.442,395.445 99.324,443.953 112.833,491.076 C114.129,495.598 123.078,491.889 123.733,488.484 C129.19,460.135 132.015,431.355 137.402,402.992 C142.649,375.357 150.039,346.648 166.837,323.578 C163.294,323.735 159.751,323.893 156.207,324.05 C157.545,349.57 155.902,375.144 157.81,400.65 C159.682,425.679 165.139,451.567 181.728,471.201 C184.728,474.752 191.915,470.444 192.235,466.641 C193.633,450.037 194.027,433.369 195.773,416.788 C197.461,400.757 200.059,383.293 208.797,369.398 C205.261,369.555 201.725,369.712 198.19,369.87 C198.379,381.152 202.205,391.678 203.952,402.723 C205.815,414.501 204.455,426.188 209.109,437.476 C211.062,442.211 218.749,438.025 220.03,434.878 C222.315,429.263 223.446,423.35 224.791,417.461 C226.015,412.099 228.376,407.426 230.057,402.254 C230.882,399.718 231.445,400.224 229.182,401.856 C228.02,402.695 230.282,401.406 230.263,401.415 C231.584,400.816 232.79,400.244 234.197,399.835 C240.177,398.097 246.472,398.07 252.436,396.142 C255.012,395.309 257.873,390.333 253.279,390.963 C246.346,391.912 239.377,391.036 232.511,392.77 C228.681,393.738 223.362,395.727 220.994,399.106 C220.105,400.374 219.782,402.174 219.272,403.605 C218.099,406.897 216.291,409.905 215.163,413.239 C212.702,420.513 211.981,428.2 209.069,435.352 C212.71,434.486 216.35,433.621 219.99,432.754 C215.674,422.284 216.637,411.094 215.272,400.069 C213.893,388.947 209.702,378.538 209.512,367.215 C209.42,361.712 200.585,365.016 198.905,367.687 C189.772,382.209 186.8,399.727 184.78,416.485 C182.665,434.026 182.386,451.709 180.903,469.3 C184.405,467.779 187.908,466.26 191.41,464.74 C175.441,445.837 170.831,420.505 169.04,396.523 C167.173,371.513 168.864,346.416 167.556,321.39 C167.261,315.749 158.768,319.332 156.926,321.862 C139.919,345.216 132.189,374.011 126.697,401.963 C121.032,430.794 118.304,460.104 112.796,488.956 C116.43,488.092 120.063,487.228 123.696,486.364 C110.35,440.097 119.543,392.004 117.229,344.763 C117.023,340.564 110.996,341.832 108.797,343.302 C77.103,364.499 75.425,408.262 61.975,440.529 C65.279,439.42 68.583,438.311 71.888,437.202 C58.281,418.376 70.164,393.791 61.14,373.465 C59.806,370.463 54.716,372.05 53.095,373.861 C49.656,377.702 46.866,381.999 44.011,386.275 C42.481,388.568 40.891,390.816 39.218,393.006 C38.224,394.308 35.252,397.829 34.283,398.148 C24.204,401.457 12.147,397.738 1.766,397.705 C0.353,397.699 -0.962,399.851 1.043,399.9 L1.043,399.9 Z" id="Shape"></path>
                </g>
            </g>
        </g>
    </g>
</svg>
